svg/300/rounded/range_hood-fill.svg

<svg xmlns="http://www.w3.org/2000/svg" width="48" height="48" viewBox="0 -960 960 960"><path d="M173.539-453.384q-14.23 0-19.846-13.115-5.615-13.115 4.616-23.731l141.692-141.308v-130.768q0-23.75 16.972-40.721 16.971-16.972 40.721-16.972h244.612q23.75 0 40.721 16.972 16.972 16.971 16.972 40.721v130.768L800.691-490.23q10.616 10.616 4.891 23.731-5.726 13.115-20.121 13.115H173.539Zm-15.845 273.383q-23.75 0-40.721-16.972-16.972-16.971-16.972-40.721v-141.46q0-12.519 8.164-20.683Q116.328-408 128.848-408h702.304q12.52 0 20.683 8.163 8.164 8.164 8.164 20.683v141.46q0 23.75-16.972 40.721-16.971 16.972-40.721 16.972H157.694ZM416.538-299.77h126.924q6.871 0 11.705-4.828Q560-309.426 560-316.29q0-6.479-4.833-11.518-4.834-5.038-11.705-5.038H416.538q-6.871 0-11.705 5.02-4.833 5.021-4.833 11.5 0 6.864 4.833 11.71 4.834 4.846 11.705 4.846Z"/></svg>

<svg xmlns="http://www.w3.org/2000/svg" width="48" height="48" viewBox="0 -960 960 960"><path d="M173.54-453.38q-14.23 0-19.85-13.12-5.61-13.11 4.62-23.73L300-631.54v-130.77q0-23.75 16.97-40.72T357.69-820h244.62q23.75 0 40.72 16.97T660-762.31v130.77l140.69 141.31q10.62 10.62 4.89 23.73-5.72 13.12-20.12 13.12H173.54ZM157.69-180q-23.75 0-40.72-16.97T100-237.69v-141.46q0-12.52 8.16-20.69 8.17-8.16 20.69-8.16h702.3q12.52 0 20.69 8.16 8.16 8.17 8.16 20.69v141.46q0 23.75-16.97 40.72T802.31-180H157.69Zm258.85-119.77h126.92q6.87 0 11.71-4.83 4.83-4.83 4.83-11.69 0-6.48-4.83-11.52-4.84-5.04-11.71-5.04H416.54q-6.87 0-11.71 5.02-4.83 5.02-4.83 11.5 0 6.87 4.83 11.71 4.84 4.85 11.71 4.85Z"/></svg>
